!!!COS: Dunstable, John (???)
!!!COS: Power, Leonel (???)
!!!OTL: Alma redemptoris mater
!!!ONB: Conflicting Attribution No. 1 (LP16 OR JD40).
!!!YOR: from: "Musica Britannica" Vol. 8, edited by Manfred F. Bukofzer,
!!!YOR: 2nd rev. ed. (prepared by Margaret Bent, Ian Bent & Brian Trowell), pp.106-107
!!!YOO: Royal Musical Association (London)
!!!YOY: 1970
**kern	**kern	**kern
*ICvox	*ICvox	*ICvox
! tenor	! contratenor	! discantus
*M3/4	*M3/4	*M3/4
=1	=1	=1
*>A	*>A	*>A
!! Section 'A'; (O) mensuration.
2.c	2.r	2.c
=2	=2	=2
4.c	2.r	4.e
8d	.	8f
4e	.	4g
=3	=3	=3
4c	2.r	4g
4.f	.	4.a
8e	.	8g
=4	=4	=4
2g	2.r	2g
4e	.	[4cc
=5	=5	=5
4c	2.r	4cc]
2f	.	4.dd
.	.	8cc
=6	=6	=6
4e	2r	8.cc
.	.	16b
8f	.	8cc
8c	.	4b
4d	4f	.
.	.	8a
=7	=7	=7
[2.c	[2.g	2.cc
=8	=8	=8
2.c]	4g]	2r
.	4.e	.
.	.	4cc
.	8d	.
=9	=9	=9
2.G	2.d	2dd
.	.	4dd
=10	=10	=10
2.A	2r	4cc
.	.	8a
.	.	16g
.	.	16a
.	4f	8cc
.	.	8b
=11	=11	=11
2.c	2e	2g
.	4e	4cc
=12	=12	=12
4d	4f	4b
4.c	4.e	4.a
8B-	8d	8g
=13	=13	=13
4G	2d	8.g
.	.	16f
8B-	.	8g
8G	.	4f#x
4A	4c	.
.	.	8e
=14	=14	=14
2G	4.d	4g
.	.	4r
.	8c	.
4r	4d	4f
=15	=15	=15
2.r	4e	4g
.	8c	8e
.	8d	8f
.	4Bnx	4d
=16	=16	=16
2g	2.c	4c
.	.	4r
4e	.	4g
=17	=17	=17
4f	2.r	4a
4.d	.	4.b-
8c	.	8a
=18	=18	=18
4c	2e	2a
8A	.	.
8c	.	.
4B-	4d	4g
=19	=19	=19
2.A	8e	2a
.	4c	.
.	8e	.
.	4e	4cc
=20	=20	=20
[2.F	[2.f	4dd
.	.	4.cc
.	.	8a
=21	=21	=21
2.F]	2.f]	4a
.	.	4r
.	.	4cc
=22	=22	=22
2c	2e	4.cc
.	.	8b
[4e	4g	4g
=23	=23	=23
4e]	4.g	8cc
.	.	16b
.	.	16cc
2d	.	8dd
.	16f	4b
.	16g	.
.	4f	.
.	.	8a
=24	=24	=24
2.c	2g	[2.cc
.	8e	.
.	8d	.
=25	=25	=25
2.F	2.f	4cc]
.	.	4.a
.	.	8g
=26	=26	=26
2B-	2d	2g
[4c	4e	4g
=27	=27	=27
2.c]	4c	4a
.	2g	4g
.	.	4e
=28	=28	=28
2d	4f	8.f
.	.	16g
.	4.e	4.a
4c	.	.
.	8d	8g
=29	=29	=29
4B-	4d	4.g
2A	4.c	.
.	.	8e
.	.	4f#x
.	8Bnx	.
=30	=30	=30
[2.G	2d	2.g
.	4r	.
=31	=31	=31
2G]	2.d	2r
4r	.	4f
=32	=32	=32
2.c	2.r	4.g
.	.	8f
.	.	4g
=33	=33	=33
2.r	4.g	4e
.	.	4c
.	8f	.
.	4g	4r
=34	=34	=34
4.g	4e	[2.cc
.	4c	.
8f	.	.
4g	4r	.
=35	=35	=35
4e	2.c	4cc]
4c	.	4.a
4r	.	.
.	.	8g
=36	=36	=36
4e	2.r	4g
4f	.	4.a
4c	.	.
.	.	8g
=37	=37	=37
4f	4d	4a
8e	4e	4b
4g	.	.
.	4c	8g
8e	.	[8cc
=38	=38	=38
4f	2r	8cc]
.	.	4dd
4.d	.	.
.	.	4b
.	4f	.
8c	.	8a
=39	=39	=39
2.c	8g	2.cc
.	4a	.
.	8g	.
.	8e	.
.	8d	.
=40	=40	=40
2.F	[2.f	2r
.	.	4cc
=41	=41	=41
2r	2f]	2cc
4c	4r	4cc
=42	=42	=42
[2.F	4f	4dd
.	[2c	4.cc
.	.	8a
=43	=43	=43
2.F]	2c]	4a
.	.	4r
.	4f	4cc
=44	=44	=44
2.A	[2.e	4.cc
.	.	8a
.	.	8cc
.	.	8b
=45	=45	=45
[2.c	2.e]	2g
.	.	4cc
=46	=46	=46
4c]	2.g	8cc
.	.	16b
.	.	16cc
2G	.	8dd
.	.	4b
.	.	8a
=47	=47	=47
4c	4e	4a
2B-	4f	8g
.	.	8g
.	4d	8a
.	.	8g
=48	=48	=48
2.A	2.e	2a
.	.	4r
=49	=49	=49
2.B-	2.r	4.g
.	.	8g
.	.	4g
=50	=50	=50
4c	2r	2r
4.A	.	.
.	4c	4f
8G	.	.
=51	=51	=51
4G	2.d	4g
4r	.	2a
4f	.	.
!! Yes that 7th jump was correct
=52	=52	=52
4g	2r	2g
2a	.	.
.	4d	4f
=53	=53	=53
4.g	4e	4.g
.	8d	.
8f	8e	8a
4d	4f	4b
=54	=54	=54
4c	4g	4cc
4B-	4d	4dd
4c	8e	8cc
.	[8c	8a
=55	=55	=55
4A	8c]	4cc
.	4e	.
4G	.	4.b
.	4d	.
4d	.	.
.	8f	8g
=56	=56	=56
8B-	4g	4g
4c	.	.
.	8e	4.f
8G	4d	.
4A	.	.
.	8c	8e
=57	=57	=57
2.G	2.d	2.g
!! Two-voice material
=58	=58	=58
*>B	*>B	*>B
!! Section 'B'; (O) mensuration.
2c	2.r	2cc
4d	.	4b
=59	=59	=59
4e	2.r	4cc
4.f	.	4.a
8e	.	8g
=60	=60	=60
4g	2.r	4g
4.a	.	4r
.	.	4f
8g	.	.
=61	=61	=61
4g	2.r	4g
4r	.	8b
.	.	4a
4c	.	.
.	.	[8cc
=62	=62	=62
4e	2.r	8cc]
.	.	8b
8f	.	4dd
4d	.	.
.	.	8b
[8c	.	8cc
=63	=63	=63
16c]	2.r	8b
16d	.	.
8e	.	4g
4c	.	.
.	.	8e
8B-	.	4g
[8c	.	.
=64	=64	=64
8c]	2.r	8a
4d	.	8b-x
.	.	4a
4c	.	.
.	.	8cc
8G	.	[8b-x
=65	=65	=65
4B-	2.r	8b-x]
.	.	8g
8c	.	8a
8G	.	4g
4A	.	.
.	.	8f#x
=66	=66	=66
2.G	2.r	2.g
=67	=67	=67
2.r	2.r	2.r
=68	=68	=68
4.f	2.r	2a
8e	.	.
4c	.	4a
=69	=69	=69
8B-	2.r	4.g
16A	.	.
16B-	.	.
8c	.	.
8G	.	8e
4A	.	4f
=70	=70	=70
2G	2.r	4g
.	.	4.a
4F#x	.	.
.	.	8g
=71	=71	=71
4G	2.r	4.g
4r	.	.
.	.	4e
4g	.	.
.	.	8c
!! octave leap is correct
=72	=72	=72
4.g	2.r	4c
.	.	4r
4e	.	.
.	.	4g
8c	.	.
=73	=73	=73
4c	2.r	4a
8Bnx	.	8g
8c	.	8e
8A	.	8f
8G	.	[8g
=74	=74	=74
4.c	2.r	8g]
.	.	8c
.	.	8e
8A	.	8f
4Bnx	.	4d
=75	=75	=75
2.c	2.r	2.c
=76	=76	=76
2.r	2.r	2.r
=77	=77	=77
4.c	2.r	4.cc
8d	.	8b
4e	.	8g
.	.	[8cc
=78	=78	=78
4f	2.r	8cc]
.	.	4dd
4.d	.	.
.	.	8a
.	.	4b
8c	.	.
=79	=79	=79
4c	2.r	8r
.	.	8cc
4r	.	8b
.	.	4g
8g	.	.
8f	.	8a
=80	=80	=80
8g	2.r	8b
8e	.	8cc
8d	.	8dd
4g	.	8cc
.	.	4a
8f#x	.	.
=81	=81	=81
4g	2.r	2g
4r	.	.
4G	.	4r
!! octave leap correct
=82	=82	=82
8.B-	2.r	4g
16c	.	.
8d	.	8f
4c	.	8g
.	.	4a
8f	.	.
=83	=83	=83
8e	2.r	2g
4c	.	.
8B-	.	.
8c	.	8e
[8d	.	8d
=84	=84	=84
8d]	2.r	8f
4c	.	8g
.	.	4a
8f	.	.
8e	.	8.g
8c	.	.
.	.	16e
=85	=85	=85
4d	2.r	8f
.	.	4d
8B-	.	.
8G	.	4g
4A	.	.
.	.	8f#x
=86	=86	=86
[2.G	2.r	[2.g
=86a	=86a	=86a
2.G]	2.r	2.g]
=87	=87	=87
*>C	*>C	*>C
!! Section 'C'; (C/) mensuration.
*M2/2	*M2/2	*M2/2
1c	1F	1cc
=88	=88	=88
1f	4r	2a
.	4F	.
.	2F	4cc
.	.	4b
=89	=89	=89
2e	2G	2g
2d	2f	4f
.	.	[4a
!! seventh leap is correct
=90	=90	=90
4c	4e	8a]
.	.	8g
4B-	4d	2g
2A	2c#x	.
.	.	4f#x
=91	=91	=91
1G	2.d	1g
.	[4e	.
=92	=92	=92
4c	4e]	1r
4A	4f	.
2B-	2d	.
=93	=93	=93
1c	2e	2g
.	2r	2e
=94	=94	=94
1r	2d	4f
.	.	2d
.	2G	.
.	.	4g
*M6/4	*M6/4	*M6/4
=95	=95	=95
1.r	4B-	4g
.	2c	4e
.	.	4g
.	2d	4f
.	.	4.d
.	4Bnx	.
.	.	8c
*M2/2	*M2/2	*M2/2
=96	=96	=96
1c	1c	2c
.	.	2r
=97	=97	=97
1c	4r	2.g
.	4e	.
.	2e	.
.	.	8f
.	.	8g
=98	=98	=98
1F	1f	4a
.	.	4b
.	.	2cc
=99	=99	=99
1c	1e	4a
.	.	2g
.	.	4cc
*M3/2	*M3/2	*M3/2
=100	=100	=100
2G	2d	4b
.	.	2g
2c	2e	.
.	.	4a
2d	2f	2b
*M2/2	*M2/2	*M2/2
=101	=101	=101
4c	2g	2cc
2e	.	.
.	4r	4.b
[4d	4f	.
.	.	8g
=102	=102	=102
4d]	4d	4a
4c	4e	2g
2A	2c	.
.	.	4f#x
=103	=103	=103
1G	2d	1g
.	4r	.
.	4e	.
=104	=104	=104
2F	1f	2r
4r	.	2a
4F	.	.
=105	=105	=105
2F	4r	4cc
.	4f	8b
.	.	8cc
4r	[2f	4dd
4F	.	4cc
=106	=106	=106
1F	2f]	2a
.	2c	4r
.	.	4f
=107	=107	=107
4r	2d	4a
4G	.	4b
2A	4c	2cc
.	[4f	.
=108	=108	=108
4F	4f]	4r
4A	[2.e	4a
2G	.	4b
.	.	[4g
=109	=109	=109
2c	4e]	4g]
.	2g	2cc
2d	.	.
.	4f	4b
=110	=110	=110
1c	4g	1cc
.	2e	.
.	4d	.
=111	=111	=111
2F	1f	2r
4r	.	2a
4F	.	.
=112	=112	=112
1F	4r	2cc
.	4f	.
.	2f	4dd
.	.	[4cc
=113	=113	=113
1c	2.e	4cc]
.	.	4a
.	.	4r
.	[4g	4cc
=114	=114	=114
1G	2.g]	4dd
.	.	2b
.	[4e	4g
=115	=115	=115
2.c	4e]	2a
.	4c	.
.	2g	4cc
[4e	.	4b
*M6/4	*M6/4	*M6/4
=116	=116	=116
4e]	2.e	2g
2g	.	.
.	.	4cc
4f	4d	2b
2d	2f	.
.	.	4a
*M2/2	*M2/2	*M2/2
=117	=117	=117
2c	2g	1cc
2r	2e	.
=118	=118	=118
2F	2d	2r
2G	2e	2g
=119	=119	=119
4r	4c	2a
4F	2d	.
2G	.	4g
.	[4c	4e
=120	=120	=120
2A	4c]	2f
.	4Bnx	.
2G	2d	4r
.	.	4g
=121	=121	=121
4r	2f	2a
4F	.	.
2G	4e	2g
.	4d	.
=122	=122	=122
4F	4f	4a
4G	2e	2b
4E	.	.
[4F	4c	4a
=123	=123	=123
4F]	2d	4cc
2G	.	4b
.	[2e	4g
[4c	.	8f
.	.	8g
=124	=124	=124
4c]	4e]	4a
4B-	2d	4.g
2A	.	.
.	.	8e
.	4c#x	4f#x
=125	=125	=125
1G	1d	1g
==	==	==
*-	*-	*-
!!!ENC: Mark Laxton
!!!EDD: Mark Laxton
!!!YEC: Mark Laxton, 1987
!!!EMD: Reference records added by D. Huron, 2001
!!!EEV: 1.1
